icons/tokens/0xdAC17F958D2ee523a2206206994597C13D831ec7/logo.svg

<svg xmlns="http://www.w3.org/2000/svg" width="32" height="32" viewBox="0 0 32 32">
  <g fill="none" fill-rule="evenodd">
    <path fill="#54AE94" d="M32,16 C32,13.90592 31.58336,11.81184 30.78208,9.87712 C29.9808,7.9424 28.79456,6.16704 27.3136,4.6864 C25.83296,3.20544 24.0576,2.0192 22.12288,1.21792 C20.18816,0.41664 18.09408,0 16,0 C13.90592,0 11.81184,0.41664 9.87712,1.21792 C7.9424,2.0192 6.16704,3.20544 4.6864,4.6864 C3.20544,6.16704 2.0192,7.9424 1.21792,9.87712 C0.41664,11.81184 0,13.90592 0,16 C0,18.09408 0.41664,20.18816 1.21792,22.12288 C2.0192,24.0576 3.20544,25.83296 4.6864,27.3136 C6.16704,28.79456 7.9424,29.9808 9.87712,30.78208 C11.81184,31.58336 13.90592,32 16,32 C18.09408,32 20.18816,31.58336 22.12288,30.78208 C24.0576,29.9808 25.83296,28.79456 27.3136,27.3136 C28.79456,25.83296 29.9808,24.0576 30.78208,22.12288 C31.58336,20.18816 32,18.09408 32,16 Z"/>
    <path fill="#FFF" d="M23.7803302,8 L23.7803302,11.5681717 L18.3596533,11.5681717 L18.3596533,13.5794204 L18.3762254,13.5800501 C20.5937026,13.6811163 22.5367837,13.9471628 23.9498757,14.3265546 C24.6567404,14.516093 25.2307094,14.731449 25.6545733,14.9880501 C25.8665052,15.1161932 26.0427433,15.2547263 26.1762764,15.4200215 C26.3098094,15.5856315 26.4,15.7880787 26.4,16.0043792 C26.4,16.2206798 26.3098094,16.423127 26.1762764,16.588737 C26.0427433,16.7540322 25.8665052,16.8925653 25.6545733,17.0207084 C25.2307094,17.2773095 24.6567404,17.4926655 23.9501944,17.6822039 C22.5367837,18.0615957 20.5937026,18.3276422 18.3762254,18.4287084 L18.3762254,18.4287084 L18.360928,18.4293381 L18.360928,25.6 L14.439072,25.6 L14.439072,18.4293381 L14.4237746,18.4287084 C12.2062974,18.3276422 10.2632163,18.0615957 8.8498056,17.6822039 C8.14325961,17.4926655 7.56929059,17.2773095 7.14542673,17.0207084 C6.93349481,16.8925653 6.75725668,16.7540322 6.62372363,16.588737 C6.49019058,16.423127 6.4,16.2206798 6.4,16.0043792 C6.4,15.7880787 6.49019058,15.5856315 6.62372363,15.4200215 C6.75725668,15.2547263 6.93349481,15.1161932 7.14542673,14.9880501 C7.56929059,14.731449 8.14325961,14.516093 8.85012429,14.3265546 C10.2632163,13.9471628 12.2062974,13.6811163 14.4237746,13.5800501 L14.4237746,13.5800501 L14.4403467,13.5794204 L14.4403467,11.5681717 L9.01966983,11.5681717 L9.01966983,8 L23.7803302,8 Z M18.3615654,14.3671699 L18.3615654,16.375585 L18.3230034,16.3790483 C18.2729683,16.3834562 18.0954554,16.3985689 17.775486,16.4121073 C17.6155013,16.4187191 17.4198228,16.4253309 17.1871757,16.4300537 C17.0708522,16.4322576 16.9452865,16.4341467 16.8098413,16.4354061 C16.742278,16.4360358 16.6724839,16.4366655 16.5998215,16.4369803 L16.0932564,16.4363113 L16.0932564,16.4363113 L15.9901587,16.4354061 C15.8547135,16.4341467 15.7291478,16.4322576 15.6128243,16.4300537 C15.3801772,16.4253309 15.1844987,16.4187191 15.024514,16.4121073 C14.7045446,16.3985689 14.5270317,16.3834562 14.4769966,16.3790483 L14.4769966,16.3790483 L14.4384346,16.375585 L14.4384346,14.3671699 C12.5084199,14.4524937 10.8238001,14.6624973 9.63379438,14.9461753 C9.03815412,15.0884866 8.56552999,15.2506333 8.25767098,15.4152987 C8.10374147,15.4974741 7.99187966,15.5809088 7.92622857,15.6526941 C7.86057747,15.7247943 7.84241188,15.7767442 7.84241188,15.8211377 C7.84241188,15.8655313 7.86057747,15.9174812 7.92622857,15.9895814 C7.99187966,16.0613667 8.10374147,16.1448014 8.25798967,16.2269767 C8.56584868,16.3916422 9.03847282,16.5537889 9.63443177,16.6961002 C10.826031,16.9804079 12.5138377,17.1907263 14.4467206,17.2757352 L14.4467206,17.2757352 L16.4,17.3188694 L18.3532794,17.2757352 C20.2861623,17.1907263 21.973969,16.9804079 23.1655682,16.6961002 C23.7615272,16.5537889 24.2341513,16.3916422 24.5420103,16.2269767 C24.6962585,16.1448014 24.8081203,16.0613667 24.8737714,15.9895814 C24.9394225,15.9174812 24.9575881,15.8655313 24.9575881,15.8211377 C24.9575881,15.7767442 24.9394225,15.7247943 24.8737714,15.6526941 C24.8081203,15.5809088 24.6962585,15.4974741 24.542329,15.4152987 C24.23447,15.2506333 23.7618459,15.0884866 23.1662056,14.9461753 C21.9761999,14.6624973 20.2915801,14.4524937 18.3615654,14.3671699 L18.3615654,14.3671699 Z"/>
  </g>
</svg>

<svg xmlns="http://www.w3.org/2000/svg" width="32" height="32"><g fill="none" fill-rule="evenodd"><path fill="#54AE94" d="M32 16c0-2.094-.417-4.188-1.218-6.123a16.047 16.047 0 00-3.468-5.19 16.047 16.047 0 00-5.191-3.47A16.055 16.055 0 0016 0c-2.094 0-4.188.417-6.123 1.218a16.047 16.047 0 00-5.19 3.468 16.047 16.047 0 00-3.47 5.191A16.055 16.055 0 000 16c0 2.094.417 4.188 1.218 6.123a16.047 16.047 0 003.468 5.19 16.047 16.047 0 005.191 3.47A16.055 16.055 0 0016 32c2.094 0 4.188-.417 6.123-1.218a16.047 16.047 0 005.19-3.468 16.047 16.047 0 003.47-5.191A16.055 16.055 0 0032 16z"/><path fill="#FFF" d="M23.78 8v3.568h-5.42v2.011l.016.001c2.218.101 4.16.367 5.574.747.707.19 1.28.404 1.705.661.212.128.388.267.521.432a.94.94 0 01.224.584.94.94 0 01-.224.585c-.133.165-.31.304-.521.432-.424.256-.998.472-1.705.661-1.413.38-3.356.646-5.574.747h-.015V25.6h-3.922v-7.17l-.015-.001c-2.218-.101-4.16-.367-5.574-.747-.707-.19-1.28-.405-1.705-.661a1.957 1.957 0 01-.521-.432.94.94 0 01-.224-.585.94.94 0 01.224-.584c.133-.165.31-.304.521-.432.424-.257.998-.472 1.705-.661 1.413-.38 3.356-.646 5.574-.747h.016v-2.012H9.02V8h14.76zm-5.418 6.367v2.009l-.039.003c-.05.004-.228.02-.548.033a27.9 27.9 0 01-1.175.025h-.507l-.103-.002a38.994 38.994 0 01-.965-.023c-.32-.013-.498-.029-.548-.033l-.039-.003v-2.009c-1.93.085-3.614.295-4.804.58-.596.141-1.068.304-1.376.468a1.272 1.272 0 00-.332.238c-.065.072-.084.124-.084.168 0 .045.019.096.084.169.066.071.178.155.332.237.308.165.78.327 1.376.47 1.192.283 2.88.494 4.813.579l1.953.043 1.953-.043c1.933-.085 3.621-.296 4.813-.58.596-.142 1.068-.304 1.376-.469.154-.082.266-.166.332-.237.065-.073.084-.124.084-.169 0-.044-.019-.096-.084-.168a1.272 1.272 0 00-.332-.238c-.308-.164-.78-.327-1.376-.469-1.19-.284-2.874-.494-4.804-.579z"/></g></svg>
